X:1809
T:"Sweet Killaloe"    (march)     1809
C:after Chief F. O'Neill
B:O'Neill's Music Of Ireland (The 1850) Lyon & Healy, Chicago, 1903 edition
Z:FROM O'NEILL'S TO NOTEWORTHY, FROM NOTEWORTHY TO ABC, MIDI AND .TXT BY VINCE
BRENNAN July 2003 (HTTP://WWW.SOSYOURMOM.COM)
I:abc2nwc
M:2/4
L:1/16
K:D
(FG) A2D2 F2|ED ABAG E2|FG A2D2 F2|ED C2D2 E2|
FG A2D2 F2|ED ABAG E2|EF G2E2 =c2|E2 D4D2:|
G2 A2Bc d2|c2 A2B2 =c2-|=c2 E2F2 G2-|GF E2F2 G2-|
G2 A2Bc d2|c2 A2B2 =c2|A2 G2E2 =c2|E2 D4D2|
G2 A2Bc d2|c2 A2B2 =c2-|=c2 E2F2 G2-|GF E2F2 G2-|
G2 A2Bc d2|cd e2d2 c2|A2 G2E2 =c2|E2 D4D2 |]


